X:1
T:Title
%%score { 1 | 2 }
L:1/8
Q:1/4=110
M:4/4
K:F
V:1 treble nm="Grand Piano"
V:2 bass 
V:1
 A3 A A2 G2 | F2 D2 F4 | A3 F [EG]2 [EG]2 | F6 z2 | A3 A A2 G2 | F2 D2 F4 | %6
w: Arthur~Wilton * * *||||||
 [Fc]3 [DFB] [CFA]2 [B,EG]2 | [A,F]6 z2 | [B,EG]3 [A,EA] [EB]2 E2 | F2 G2 A4 | %10
w: ||||
 [EG]3 [EA] [EB]2 [Ec]2 | d2 c2 A4 | [EG]3 [EA] [EB]2 E2 | F2 G2 A4 | c3 [DFB] [CFA]2 [B,EG]2 | %15
w: |||||
 F6 z2 | c3 c c2 A2 | c6 z2 | [Fd]3 [Fd] [Fd]2 [DFB]2 | [Fd]6 z2 | c3 d c2 A2 | [FA]2 [EG]2 F4 | %22
w: |||||||
 [Fc]3 [DFB] [CFA]2 [B,EG]2 | [A,F]6 z2 |] %24
w: ||
V:2
 [F,CF]3 [F,CF] [F,CF]2 [F,B,E]2 | [F,A,C]2 [F,B,]2 [F,A,C]4 | [F,CF]3 [F,A,] [C,B,]2 [C,B,]2 | %3
 [F,A,]6 z2 | [F,CF]3 [F,CF] [F,CF]2 [F,B,E]2 | [F,A,C]2 [F,B,]2 [F,A,C]4 | [C,A,]3 C, C,2 C,2 | %7
 F,6 z2 | C,3 C, [C,G,]2 [C,B,C]2 | [F,A,C]2 [F,B,E]2 [F,CF]4 | [C,B,]3 [C,A,] [C,G,]2 [C,B,]2 | %11
 [F,B,F]2 [F,A,F]2 [F,CF]4 | [C,B,]3 [C,A,] [C,G,]2 [C,B,C]2 | [F,A,C]2 [F,B,E]2 [F,CF]4 | %14
 [F,A,F]3 B,, C,2 C,2 | [F,A,]6 z2 | [F,A,F]3 [F,A,F] [F,A,F]2 [F,CF]2 | [F,A,F]6 z2 | %18
 [B,,B,]3 [B,,B,] [B,,B,]2 B,,2 | [B,,B,]6 z2 | [F,A,F]3 [F,B,F] [F,A,F]2 [F,CF]2 | %21
 [C,C]2 [C,B,]2 [D,A,]4 | [C,A,]3 C, C,2 C,2 | F,6 z2 |] %24

